!!!COM: Music21
!!!OTL: hornpipe_White-Blanket--The
!!!OMV: hornpipe_White-Blanket--The
**kern
*clefG2
*k[f#]
*G:
*M4/4
=1
12gL
12a
12bJ
=
8ccL
8eJ
8eL
8dJ
8eL
8f#J
8gL
8eJ
=
8dL
8eJ
12gL
12a
12bJ
4.cc
8a
=
8bL
8aJ
8gL
8eJ
4d
12eL
12f#
12gJ
=
4a
8aL
8bJ
8aL
8dJ
8gL
8aJ
=
8bL
8aJ
8gL
8eJ
8dL
8eJ
8dL
8eJ
!!linebreak:original
=
4g
8gL
8aJ
4g
4ryy
=||
*M4/4
12gL
12a
12bJ
=
8ccL
8eJ
8eL
8dJ
8eL
8f#J
8gL
8eJ
=
8dL
8eJ
12gL
12a
12bJ
4.cc
8a
=
8bL
8aJ
8gL
8eJ
4d
12eL
12f#
12gJ
=
4a
8aL
8bJ
8aL
8dJ
8gL
8aJ
!!linebreak:original
=
8bL
8aJ
8gL
8eJ
8dL
8eJ
8dL
8eJ
=
4g
8gL
8aJ
4g
4ryy
=||
12bL
12cc
12ddJ
2.ryy
=
4ee
8eeL
8ddJ
8eeL
8ff#J
8ggL
8eeJ
=
8ddL
8bJ
12gL
12a
12bJ
4.cc
8a
=
8bL
8aJ
8gL
8eJ
4d
12eL
12f#
12gJ
!!linebreak:original
=
4a
8aL
8bJ
8aL
8dJ
8gL
8aJ
=
8bL
8aJ
8gL
8eJ
8dL
8eJ
8dL
8eJ
=
4g
8gL
8aJ
4g
4ryy
=||
12bL
12cc
12ddJ
2.ryy
=
4ee
8eeL
8ddJ
8eeL
8ff#J
8ggL
8eeJ
=
8ddL
8bJ
12gL
12a
12bJ
4.cc
8a
!!linebreak:original
=
8bL
8aJ
8gL
8eJ
4d
12eL
12f#
12gJ
=
4a
8aL
8bJ
8aL
8dJ
8gL
8aJ
=
8bL
8aJ
8gL
8eJ
8dL
8eJ
8dL
8eJ
=
4g
8gL
8aJ
4g
4ryy
=||
*-
